icons-rebrand/svg/secure-call-shield-bold.svg

<svg xmlns="http://www.w3.org/2000/svg" width="32" height="32" viewBox="0 0 32 32" fill="none"><path d="M23.0721 18.755C23.4986 18.9314 23.8863 19.19 24.2131 19.516L26.9671 22.275C27.6284 22.9369 27.9999 23.8343 27.9999 24.77C27.9999 25.7057 27.6284 26.6031 26.9671 27.265L25.5001 28.74C24.3822 29.6506 22.9594 30.1012 21.5211 30C18.2771 30 13.6211 28.378 8.6211 23.37C0.764096 15.5 1.2511 8.483 3.2591 6.473L4.7321 5C5.40306 4.35872 6.29546 4.00085 7.2236 4.00085C8.15173 4.00085 9.04413 4.35872 9.7151 5L12.4701 7.757C13.1289 8.41679 13.499 9.31109 13.499 10.2435C13.499 11.1759 13.1289 12.0702 12.4701 12.73L12.4001 12.8C12.1331 13.063 11.2151 13.968 10.7731 14.407C10.8444 16.1886 11.5834 17.8782 12.8433 19.1399C14.1031 20.4016 15.7916 21.1431 17.5731 21.217C18.0881 20.698 19.2451 19.517 19.2451 19.517C19.7362 19.0246 20.3623 18.6889 21.0443 18.5524C21.7262 18.4159 22.4333 18.4846 23.0761 18.75L23.0721 18.755ZM24.0801 27.286L25.5521 25.849C25.8382 25.5628 25.999 25.1747 25.999 24.77C25.999 24.3653 25.8382 23.9772 25.5521 23.691L22.8001 20.932C22.5162 20.6496 22.132 20.491 21.7316 20.491C21.3311 20.491 20.947 20.6496 20.6631 20.932C20.6631 20.932 19.1881 22.432 18.8251 22.799C18.1251 23.499 16.4941 23.184 15.5841 22.934C14.0196 22.5088 12.5891 21.6925 11.4271 20.562C9.6601 18.792 7.8891 14.462 9.1921 13.156C9.5571 12.79 11.0631 11.307 11.0631 11.307C11.344 11.0227 11.501 10.6389 11.4999 10.2393C11.4988 9.83963 11.3396 9.45667 11.0571 9.174L8.3001 6.448C8.15878 6.30616 7.99086 6.19362 7.80596 6.11683C7.62106 6.04004 7.42281 6.00051 7.2226 6.00051C7.02238 6.00051 6.82414 6.04004 6.63923 6.11683C6.45433 6.19362 6.28641 6.30616 6.1451 6.448L4.67409 7.89C3.40009 9.17 3.1241 15 10.0351 21.917C16.9461 28.834 22.8001 28.563 24.0801 27.286Z M23.5001 14.5C23.2611 14.4995 23.026 14.4394 22.8161 14.325C21.3325 13.4724 20.0995 12.2443 19.2411 10.764C18.3991 9.30425 17.9701 7.64292 18.0001 5.958V5.147C17.9978 4.83571 18.0797 4.52959 18.2371 4.261C18.3918 3.99506 18.6126 3.77357 18.8781 3.618L21.8071 1.943C22.3242 1.65833 22.9048 1.50905 23.4951 1.50905C24.0854 1.50905 24.666 1.65833 25.1831 1.943H25.1881L28.1061 3.611C28.378 3.76857 28.6041 3.99434 28.7621 4.266C28.9203 4.5392 29.0012 4.85032 28.9961 5.166V5.982C29.0242 7.6601 28.5959 9.31432 27.7571 10.768C26.904 12.2415 25.6788 13.465 24.2041 14.316C23.9889 14.4361 23.7466 14.4995 23.5001 14.5ZM20.0001 5.28V5.98C19.9734 7.30816 20.3102 8.61837 20.9741 9.769C21.5932 10.8356 22.4595 11.738 23.5001 12.4C24.5404 11.7369 25.4058 10.8331 26.0231 9.765C26.6849 8.62211 27.0226 7.32047 27.0001 6V5.28L24.2001 3.68C23.9844 3.56192 23.7425 3.50003 23.4966 3.50003C23.2507 3.50003 23.0088 3.56192 22.7931 3.68L20.0001 5.28Z"/></svg>

<svg width="32" height="32" fill="none" xmlns="http://www.w3.org/2000/svg"><path fill-rule="evenodd" clip-rule="evenodd" d="M23.0721 18.755c.4265.1764.8142.435 1.141.761l2.754 2.759a3.53 3.53 0 0 1 0 4.99l-1.467 1.475a5.6702 5.6702 0 0 1-3.979 1.26c-3.244 0-7.9-1.622-12.9-6.63-7.857-7.87-7.37-14.887-5.362-16.897L4.7321 5a3.606 3.606 0 0 1 4.983 0l2.755 2.757a3.5192 3.5192 0 0 1 0 4.973l-.07.07c-.267.263-1.185 1.168-1.627 1.607a7.1 7.1 0 0 0 6.8 6.81c.515-.519 1.672-1.7 1.672-1.7a3.5155 3.5155 0 0 1 3.831-.767l-.004.005Zm1.008 8.531 1.472-1.437a1.5263 1.5263 0 0 0 0-2.158l-2.752-2.759a1.5153 1.5153 0 0 0-2.137 0s-1.475 1.5-1.838 1.867c-.7.7-2.331.385-3.241.135a9.555 9.555 0 0 1-4.157-2.372c-1.767-1.77-3.538-6.1-2.235-7.406.365-.366 1.871-1.849 1.871-1.849a1.5131 1.5131 0 0 0-.006-2.133l-2.757-2.726a1.521 1.521 0 0 0-2.155 0L4.6741 7.89C3.4 9.17 3.124 15 10.035 21.917c6.911 6.917 12.765 6.646 14.045 5.369Z" fill="#0F0F0F"/><path d="M23.5 14.5a1.4355 1.4355 0 0 1-.684-.175 9.746 9.746 0 0 1-3.575-3.561A9.2878 9.2878 0 0 1 18 5.958v-.811a1.7281 1.7281 0 0 1 .237-.886 1.787 1.787 0 0 1 .641-.643l2.929-1.675a3.5003 3.5003 0 0 1 3.376 0h.005l2.918 1.668a1.807 1.807 0 0 1 .656.655 1.738 1.738 0 0 1 .234.9v.816a9.2658 9.2658 0 0 1-1.239 4.786 9.7181 9.7181 0 0 1-3.553 3.548 1.4508 1.4508 0 0 1-.704.184ZM20 5.28v.7a7.2885 7.2885 0 0 0 .974 3.789A7.701 7.701 0 0 0 23.5 12.4a7.685 7.685 0 0 0 2.523-2.635A7.2653 7.2653 0 0 0 27 6v-.72l-2.8-1.6a1.465 1.465 0 0 0-1.407 0L20 5.28Z" fill="#0F0F0F"/></svg>
